icons/medium.svg

<?xml version="1.0" encoding="UTF-8"?>
<svg width="256px" height="256px" viewBox="0 0 256 256" version="1.1" xmlns="http://www.w3.org/2000/svg" xmlns:xlink="http://www.w3.org/1999/xlink" preserveAspectRatio="xMidYMid">
		<g>
				<rect fill="#12100E" x="0" y="0" width="256" height="256"></rect>
				<path d="M61.0908952,85.6165814 C61.3045665,83.5054371 60.4994954,81.4188058 58.9230865,79.9979257 L42.8652446,60.6536969 L42.8652446,57.7641026 L92.7248438,57.7641026 L131.263664,142.284737 L165.145712,57.7641026 L212.676923,57.7641026 L212.676923,60.6536969 L198.947468,73.8174045 C197.763839,74.719636 197.176698,76.2025173 197.421974,77.670197 L197.421974,174.391342 C197.176698,175.859021 197.763839,177.341902 198.947468,178.244134 L212.355766,191.407842 L212.355766,194.297436 L144.91283,194.297436 L144.91283,191.407842 L158.802864,177.923068 C160.16778,176.558537 160.16778,176.157205 160.16778,174.070276 L160.16778,95.8906948 L121.54867,193.97637 L116.329871,193.97637 L71.3679139,95.8906948 L71.3679139,161.628966 C70.9930375,164.392788 71.9109513,167.175352 73.8568795,169.174019 L91.9219516,191.086776 L91.9219516,193.97637 L40.6974359,193.97637 L40.6974359,191.086776 L58.7625081,169.174019 C60.6942682,167.172038 61.5586577,164.371016 61.0908952,161.628966 L61.0908952,85.6165814 Z" fill="#FFFFFF"></path>
		</g>
</svg>

<svg xmlns="http://www.w3.org/2000/svg" viewBox="0 0 256 256">
  <path fill="#12100e" d="M0 0h256v256H0z"/>
  <path fill="#fff" d="M61.09 85.617a6.661 6.661 0 0 0-2.167-5.62L42.865 60.655v-2.89h49.86l38.539 84.52 33.882-84.52h47.53v2.89l-13.729 13.163a4.013 4.013 0 0 0-1.525 3.853v96.721a4.013 4.013 0 0 0 1.525 3.853l13.409 13.164v2.89h-67.443v-2.89l13.89-13.485c1.365-1.364 1.365-1.766 1.365-3.853V95.89l-38.62 98.086h-5.218L71.368 95.891v65.738a9.069 9.069 0 0 0 2.489 7.545l18.065 21.913v2.89H40.697v-2.89l18.066-21.913a8.747 8.747 0 0 0 2.328-7.545z"/>
</svg>
